app/static/img/dark-king-half.svg

<?xml version="1.0" encoding="UTF-8" standalone="no"?>
<svg
   width="100pt"
   height="100pt"
   viewBox="0 0 100 100"
   version="1.1"
   id="svg2"
   sodipodi:docname="dark-king-half.svg"
   inkscape:version="1.3.2 (091e20ef0f, 2023-11-25)"
   xmlns:inkscape="http://www.inkscape.org/namespaces/inkscape"
   xmlns:sodipodi="http://sodipodi.sourceforge.net/DTD/sodipodi-0.dtd"
   xmlns="http://www.w3.org/2000/svg"
   xmlns:svg="http://www.w3.org/2000/svg">
  <defs
     id="defs2" />
  <sodipodi:namedview
     id="namedview2"
     pagecolor="#ffffff"
     bordercolor="#000000"
     borderopacity="0.25"
     inkscape:showpageshadow="2"
     inkscape:pageopacity="0.0"
     inkscape:pagecheckerboard="0"
     inkscape:deskcolor="#d1d1d1"
     inkscape:document-units="pt"
     inkscape:zoom="6.7083333"
     inkscape:cx="60"
     inkscape:cy="60"
     inkscape:window-width="1920"
     inkscape:window-height="1011"
     inkscape:window-x="0"
     inkscape:window-y="0"
     inkscape:window-maximized="1"
     inkscape:current-layer="svg2" />
  <g
     id="surface470"
     transform="translate(2,2)">
    <path
       style="fill:#4c4c4c;fill-opacity:1;fill-rule:nonzero;stroke:#000000;stroke-width:1.3149;stroke-linecap:butt;stroke-linejoin:miter;stroke-miterlimit:4;stroke-opacity:1"
       d="M 95.328125,48 C 95.328125,74.144531 74.140625,95.34375 48,95.34375 21.859375,95.34375 0.671875,74.144531 0.671875,48 0.671875,21.855469 21.859375,0.65625 48,0.65625 74.140625,0.65625 95.328125,21.855469 95.328125,48 Z m 0,0"
       id="path1" />
    <path
       style="fill:#fafafa;fill-opacity:1;fill-rule:nonzero;stroke:none"
       d="m 48.015625,16.109375 20.375,20.375 2.15625,4.34375 -4.65625,-1.53125 -16.03125,-16.375 v 52.375 l -1.84375,4.59375 -1.875,-4.59375 v -52.34375 l -16.03125,16.34375 -4.65625,1.5625 2.1875,-4.375 z m 0,0"
       id="path2" />
  </g>
</svg>

<?xml version="1.0" encoding="UTF-8"?>
<svg xmlns="http://www.w3.org/2000/svg" xmlns:xlink="http://www.w3.org/1999/xlink" width="90pt" height="90pt" viewBox="0 0 90 90" version="1.1">
<g id="surface470">
<path style="fill-rule:nonzero;fill:rgb(30.19608%,30.19608%,30.19608%);fill-opacity:1;stroke-width:1.3149;stroke-linecap:butt;stroke-linejoin:miter;stroke:rgb(0%,0%,0%);stroke-opacity:1;stroke-miterlimit:4;" d="M 95.328125 48 C 95.328125 74.144531 74.140625 95.34375 48 95.34375 C 21.859375 95.34375 0.671875 74.144531 0.671875 48 C 0.671875 21.855469 21.859375 0.65625 48 0.65625 C 74.140625 0.65625 95.328125 21.855469 95.328125 48 Z M 95.328125 48 "/>
<path style=" stroke:none;fill-rule:nonzero;fill:rgb(98.039216%,98.039216%,98.039216%);fill-opacity:1;" d="M 48.015625 16.109375 L 68.390625 36.484375 L 70.546875 40.828125 L 65.890625 39.296875 L 49.859375 22.921875 L 49.859375 75.296875 L 48.015625 79.890625 L 46.140625 75.296875 L 46.140625 22.953125 L 30.109375 39.296875 L 25.453125 40.859375 L 27.640625 36.484375 Z M 48.015625 16.109375 "/>
</g>
</svg>
